X:58
T:La Bijoutier
T:(The Gem-maker)
R:reel
C: 1988, 2010 L.E. McCullough  
M:4/4 
L:1/8
K:D
ag|:f~A3 e~A3|d~f3 gfeg|f~a3 bagb|agfd e2ag|
f~A3 e~A3|d~f3 gfeg|f~a3 bgeb|1 agfe d2ag:|2agfe d2cd|] 
|:eAdf eAdf|g~f3 e2de|fdfa bagb|a~f3 e2ag|
fAeA fAeA|d~f3 gbag|f~a3 bgeb|1agfe d2cd:|2agfe d2ag|]
<end>
<start>
